!!!COM: Ludwig van Beethoven
!!!CNT: Deutsch
!!!TXO: Deutsch
!!!OTL: "Sehnsucht"
!!!LYR: Goethe, Johann Wolfgang
!!!OPS: Op. 83
!!!ONM: No. 2
!!!ENC: Amanda Harris
!!!YOR: Sa2mtliche Lieder, Band 2
!!!YOR: G. Henle Verlag
!!!ODT: 1810/
!!NB: Vocal melody and text encoded.
**kern	**silbe
*clefG2	*
*k[f#c#]	*
*M6/8	*
*MM[allegretto]	*
=2	=2
4r	.
8r	.
4r	.
{8f#	{Was
=3	=3
8b	zieht
8b	mir
8f#	das
8cc#	Herz
8cc#	so?
8f#	Was
=4	=4
8cc#	zieht
8cc#	mich
8f#	hin-
4dd	-aus
8ff#	und
=5	=5
8b	win-
8b	-det
8f#	und
8cc#	schraubt
8cc#	mich
8f#	aus
=6	=6
8cc#	Zim-
8cc#	-mer
8f#	und
4dd}	Haus?}
{8dd	{Wie
=7	=7
8dd	dort
8cc#	sich
8dd	die
8b	Wol-
8ee	-ken
8dd	um
=8	=8
8cc#	Fel-
8b	-sen
8cc#	ver-
4dd	-ziehn,
8dd	da
=9	=9
8cc#	mo2cht'
8a#	ich
8f#	hin-
8f#	-u2-
8b	-ber,
8dd	da
=10	=10
8cc#	mo2cht'
16cc#	ich
16a#	|
16a#	wohl
16f#	|
8f#	hin,
8b	|
8dd	da
=11	=11
8cc#	mo2cht'
8ff#	ich
8f#	wohl
4b}	hin!}
8r	.
=14	=14
4r	.
8r	.
4r	.
{8f#	{Nun
=15	=15
8b	wiegt
8b	sich
8f#	der
8cc#	Ra-
8cc#	-ben
8f#	ge-
=16	=16
8cc#	-sel-
8cc#	-li-
8f#	-ger
4dd	Flug;
8f#	ich
=17	=17
8b	mi-
8b	-sche
8f#	mich
8cc#	drun-
8cc#	-ter
8f#	und
=18	=18
8cc#	fol-
8cc#	-ge
8f#	dem
4dd}	Zug.}
{8dd	{Und
=19	=19
8dd	Berg
8cc#	und
8dd	Ge-
8b	-ma2u-
8ee	-er
8d	um-
=20	=20
8cc#	-fit-
8b	-ti-
8cc#	-gen
4dd	wir;
8dd	sie
=21	=21
8cc#	wei-
8a#	-let
8f#	da
8f#	drun-
8b	-ten;
8dd	ich
=22	=22
8cc#	spa2-
16cc#	-he
16a#	|
16a#	nach
16f#	|
8f#	ihr,
8b	|
8dd	ich
=23	=23
8cc#	spa2-
8ff#	-he
8f#	nach
4b}	ihr.}
8r	.
=26	=26
4r	.
8r	.
4r	.
{8f#	{Da
=27	=27
8b	kommt
8b	sie
8f#	und
8cc#	wand-
8cc#	-elt;
8f#	ich
=28	=28
8cc#	ei-
8cc#	-le
8f#	so
4dd	-bald,
8f#	ein
=29	=29
8b	flie-
8b	-gen-
8f#	-der
8cc#	Vo-
8cc#	-gel,
8f#	zum
=30	=30
8cc#	bu-
8cc#	-schig-
8f#	-ten
4dd}	Wald.}
{8dd	{Sie
=31	=31
8dd	wei-
8cc#	-let
8dd	und
8b	hor-
8ee	-chet
8dd	und
=32	=32
8cc#	la2-
8b	-chelt
8cc#	mit
4dd	sich:
8dd	"Er
=33	=33
8cc#	sin-
8a#	-get
8f#	so
16f#	lieb-
16b	|
8b	-lich
8dd	und
=34	=34
8cc#	singt
16cc#	es
16a#	|
16a#	an
16f#	|
8f#	mich,
8b	|
8dd	und
=35	=35
8cc#	singt
8ff#	es
8f#	an
4b}	mich."}
8r	.
=38	=38
4r	.
8r	.
4r	.
{8f#	{Die
=39	=39
8b	schei-
8b	-den-
8f#	-de
8cc#	Son-
8cc#	-ne
8f#	ver-
=40	=40
8cc#	-gu2l-
8cc#	-det
8f#	die
4dd	Ho2hn;
8f#	die
=41	=41
8b	sin-
8b	-nen-
8f#	-de
8cc#	Scho2-
8cc#	-ne,
8f#	sie
=42	=42
8cc#	la2sst
8cc#	es
8f#	ge-
4dd}	-schehn.}
{8dd	{Sie
=43	=43
8dd	wan-
8cc#	-delt
8dd	am
8b	Ba-
8ee	-che
8dd	die
=44	=44
8cc#	Wie-
8b	-sen
8cc#	ent-
4dd	-lang,
8dd	und
=45	=45
8cc#	fin-
8a#	-ster
8f#	und
16f#	fin-
16b	|
8b	-strer
8dd	um-
=46	=46
8cc#	-schlingt
16cc#	sich
16a#	|
16a#	der
16f#	|
8f#	Gang,
8b	|
8dd	um-
=47	=47
8cc#	-schlingt
8ff#	sich
8f#	der
4b}	Gang.}
8r	.
=49	=49
4r	.
8r	.
4r	.
{8f#	{Auf
=50	=50
*k[f#c#g#d#a#]	*
8b	ein-
8b	-mal
8f#	er-
8cc#	-schein'
8cc#	ich,
8f#	ein
=51	=51
8cc#	blin-
8cc#	-ken-
8f#	-der
4dd#	Stern.
8f#	"Was
=52	=52
8b	gla2n-
8b	-zet
8f#	da
8cc#	dro-
8cc#	-ben,
8f#	so
=53	=53
8cc#	nah
8cc#	und
8f#	so
4dd#}	fern?"}
{8dd#	{Und
=54	=54
8dd#	hast
8cc#	du
8dd#	mit
8b	Stau-
8ee	-nen
8dd#	das
=55	=55
8cc#	Leuch-
8b	-ten
8cc#	er-
4dd#	-blickt;
8dd#	ich
=56	=56
8cc#	lieg'
8a#	dir
8f#	zu
16f#	Fu2-
16b	|
8b	-ssen,
8dd#	da
=57	=57
8cc#	bin
16cc#	ich
16a#	|
16a#	be-
16f#	|
8f#	-glu2ckt,
8b	|
8dd#	da
=58	=58
8cc#	bin
8ff#	ich
8f#	be-
4b}	glu2ckt!}
8r	.
*-	*-
